X: 324
T: 325. Mit Fried und Freud ich fahr dahin
N: Derived from chor325.krn
C: Johann Sebastian Bach
%%abc-version 2.0
%%abcx-abcm2ps-target-version 5.9.1 (29 Sep 2008)
%%abc-creator hum2abc beta
%%abcx-conversion-date 2019/03/11 17:28:19
%%abc-edited-by Craig Stuart Sapp
%%humdrum-veritas 3336712168
%%humdrum-veritas-data 2073731495
%%
%%barnumbers 0
L: 1/4
M: C
%%staves [1 2 3 4]
V: 1 clef=treble
V: 2 clef=treble
V: 3 clef=treble-8
V: 4 clef=bass
K: C
[V:1] D [I:setbarnb 1]| 
[V:2] A, | 
[V:3] F | 
[V:4] D, | 
[V:1] AAGd | 
[V:2] EFED/E/ | 
[V:3] AdBA/B/ | 
[V:4] ^C,D,E,^F,/^G,/ | 
[V:1] =cB!fermata!Ac | 
[V:2] E/^F/^G!fermata!E=G | 
[V:3] =c/d/ e/d/!fermata!cc- | 
[V:4] A,E,!fermata!A,,E, | 
[V:1] AcB/A/B | 
[V:2] =FFB,/C/D | 
[V:3] c/B/A^G/A^G/ | 
[V:4] D,E,/F,/E,2 | 
[V:1] !fermata!A3B | 
[V:2] !fermata!^C3D | 
[V:3] !fermata!A3F | 
[V:4] !fermata!A,,3D, | 
[V:1] =cBcA | 
[V:2] EFGF | 
[V:3] Gdcc | 
[V:4] =C,D,E,F, | 
[V:1] GFGE | 
[V:2] EF/E/DC | 
[V:3] _BcGG | 
[V:4] G,A,B,C | 
[V:1] !fermata!D2A3/G/ | 
[V:2] !fermata!B,2E3/^C/ | 
[V:3] !fermata!G2AA | 
[V:4] !fermata!G,2^C,3/A,,/ | 
[V:1] F/E/D!fermata!C2 | 
[V:2] D/=C/_B,!fermata!A,2 | 
[V:3] A/G/F!fermata!F2 | 
[V:4] D,3/E,/!fermata!F,2 | 
[V:1] AF=cA | 
[V:2] EFGF | 
[V:3] AAGc | 
[V:4] ^C,D,E,F, | 
[V:1] G/F/G!fermata!AG | 
[V:2] E/D/ ^C/D/!fermata!CC | 
[V:3] _B/A/G!fermata!EA | 
[V:4] G,/A,/_B,!fermata!A,A,, | 
[V:1] FE/D/^CF | 
[V:2] D/=C/_B,A,D | 
[V:3] A/G/FEA | 
[V:4] D,G,,G,/F,/ E,/D,/ | 
[V:1] E/D/E!fermata!D |]  
[V:2] E/F/^C!fermata!A, |]  
[V:3] A3/G/!fermata!^F |]  
[V:4] ^C,/D,/A,,!fermata!D, |]  



